packages/assets/application-icons/04.Rocket.svg

<?xml version="1.0" encoding="UTF-8"?>
<svg width="24px" height="24px" viewBox="0 0 24 24" version="1.1" xmlns="http://www.w3.org/2000/svg" xmlns:xlink="http://www.w3.org/1999/xlink">
    <title>04.Rocket</title>
    <g id="Page-1" stroke="none" stroke-width="1" fill="none" fill-rule="evenodd">
        <g id="Artboard" transform="translate(-168.000000, -101.000000)" fill="#000000" fill-rule="nonzero">
            <g id="04.Rocket" transform="translate(168.000000, 101.000000)">
                <path d="M20.9999533,3 L20.9999533,3.62070312 C20.9999533,6.52871094 19.3716423,10.5951172 17.2757439,13.5339844 L17.2757439,13.5339844 L17.2757439,17.2758789 C17.2757439,17.4405273 17.2103142,17.5983398 17.093908,17.7147461 L17.093908,17.7147461 L13.9905876,20.8181641 C13.8718376,20.9369141 13.7132439,21 13.5515251,21 C13.4716423,21 13.3909783,20.9844727 13.3140251,20.9527344 C13.0823845,20.8566407 12.9310173,20.6302735 12.9310173,20.3792969 L12.9310173,20.3792969 L12.9310173,18.1535156 L11.6896111,16.912207 L10.887072,17.7147461 C10.7659783,17.8359375 10.6069939,17.896582 10.4482048,17.896582 C10.2894158,17.896582 10.1304314,17.8359375 10.0093376,17.7147461 L10.0093376,17.7147461 L6.2853142,13.9905273 C6.04273608,13.7481445 6.04273608,13.3553711 6.2853142,13.1128906 L6.2853142,13.1128906 L7.08765796,12.3103516 L5.8462517,11.0689453 L3.62066576,11.0689453 C3.3696892,11.0689453 3.14332202,10.9177734 3.04722826,10.6857422 C2.95113452,10.4539063 3.00425952,10.1869141 3.18179858,10.009375 L3.18179858,10.009375 L6.28531422,6.90595704 C6.40172046,6.78945314 6.55953296,6.7241211 6.7241814,6.7241211 L6.7241814,6.7241211 L10.4659783,6.7241211 C13.4048455,4.62832032 17.4712517,3 20.3792595,3 L20.3792595,3 L20.9999533,3 Z M6.10347826,15.4137695 L8.58629076,17.896582 C8.58629076,19.6119141 6.08765796,21 2.99996264,21 C2.99996264,17.9123047 4.38804858,15.4137695 6.10347826,15.4137695 L6.10347826,15.4137695 Z M15.4187126,6.71914062 C14.3919548,6.71914062 13.5566033,7.55449218 13.5566033,8.58125 C13.5566033,9.60800782 14.3919548,10.4433594 15.4187126,10.4433594 C16.4456658,10.4433594 17.280822,9.60800782 17.280822,8.58125 C17.280822,7.55449218 16.4456658,6.71914062 15.4187126,6.71914062 Z" id="Rocket"></path>
            </g>
        </g>
    </g>
</svg>

<svg width="24" height="24" viewBox="0 0 24 24" xmlns="http://www.w3.org/2000/svg"><path d="M21 3v.62c0 2.909-1.628 6.975-3.724 9.914v3.742a.62.62 0 0 1-.182.439l-3.103 3.103a.62.62 0 0 1-1.06-.439v-2.225l-1.241-1.242-.803.803a.619.619 0 0 1-.878 0L6.285 13.99a.62.62 0 0 1 0-.878l.803-.803-1.242-1.241H3.621a.62.62 0 0 1-.44-1.06l3.104-3.103a.62.62 0 0 1 .44-.182h3.741C13.405 4.628 17.471 3 20.379 3H21ZM6.103 15.414l2.483 2.483C8.586 19.612 6.088 21 3 21c0-3.088 1.388-5.586 3.103-5.586Zm9.316-8.695a1.864 1.864 0 0 0-1.862 1.862c0 1.027.835 1.862 1.862 1.862a1.864 1.864 0 0 0 1.862-1.862 1.864 1.864 0 0 0-1.862-1.862Z" fill="#000" fill-rule="nonzero"/></svg>
